16x16/apps/com.sweethome3d.Sweethome3d.svg

<svg height="16" width="16" xmlns="http://www.w3.org/2000/svg"><path d="m8.042 0a1.776 1.82 0 0 0 -.93.243l-5.224 3.09a1.776 1.82 0 0 0 -.888 1.577v6.182a1.776 1.82 0 0 0 .414 1.166l6.586-5.458 6.585 5.456a1.776 1.82 0 0 0 .415-1.165v-6.182a1.776 1.82 0 0 0 -.888-1.575l-5.224-3.091a1.776 1.82 0 0 0 -.846-.243zm-6.628 12.257a1.776 1.82 0 0 0 .12.134 1.776 1.82 0 0 1 -.12-.134zm.12.134a1.776 1.82 0 0 0 .134.12 1.776 1.82 0 0 1 -.133-.12zm.134.12a1.776 1.82 0 0 0 .143.106 1.776 1.82 0 0 1 -.143-.106zm12.913-.25a1.776 1.82 0 0 1 -.469.405 1.776 1.82 0 0 0 .47-.406zm-6.8 3.725a1.776 1.82 0 0 0 .354.008 1.776 1.82 0 0 1 -.354-.008z" fill="#0073d6"/><path d="m8 .002a1.776 1.82 0 0 0 -.888.241l-5.224 3.09a1.776 1.82 0 0 0 -.888 1.577v6.182a1.776 1.82 0 0 0 .414 1.166l6.586-5.458zm-6.586 12.255a1.776 1.82 0 0 0 .12.134 1.776 1.82 0 0 1 -.12-.134zm.12.134a1.776 1.82 0 0 0 .134.12 1.776 1.82 0 0 1 -.133-.12zm.134.12a1.776 1.82 0 0 0 .143.106 1.776 1.82 0 0 1 -.143-.106z" opacity=".3"/><path d="m8 6.8-6.586 5.457a1.776 1.82 0 0 0 .474.409l5.224 3.09a1.776 1.82 0 0 0 1.776 0l5.224-3.09a1.776 1.82 0 0 0 .473-.41z" fill="#ff9e43"/><path d="m23.599 12.424 10.392 6v12l-10.392 6-10.393-6v-12z" fill="#f13f3f" transform="matrix(.3849 0 0 .37402 -1.083 -1.235)"/><path d="m12 5.656-4 2.244v4.488l4-2.244z" opacity=".3"/><path d="m4 5.656v4.488l4 2.244v-4.488z" opacity=".1"/></svg>

<svg xmlns="http://www.w3.org/2000/svg" width="16" height="16" version="1"><path style="fill:#0073d6" d="M8.042 0a1.776 1.82 0 0 0-.93.243l-5.224 3.09A1.776 1.82 0 0 0 1 4.91v6.182a1.776 1.82 0 0 0 .414 1.166L8 6.8l6.585 5.456A1.776 1.82 0 0 0 15 11.091V4.909a1.776 1.82 0 0 0-.888-1.575L8.888.243A1.776 1.82 0 0 0 8.042 0zM1.414 12.257a1.776 1.82 0 0 0 .12.134 1.776 1.82 0 0 1-.12-.134zm.12.134a1.776 1.82 0 0 0 .134.12 1.776 1.82 0 0 1-.133-.12zm.134.12a1.776 1.82 0 0 0 .143.106 1.776 1.82 0 0 1-.143-.106zm12.913-.25a1.776 1.82 0 0 1-.469.405 1.776 1.82 0 0 0 .47-.406zm-6.8 3.725a1.776 1.82 0 0 0 .354.008 1.776 1.82 0 0 1-.354-.008z"/><path style="opacity:.3" d="M8 .002a1.776 1.82 0 0 0-.888.241l-5.224 3.09A1.776 1.82 0 0 0 1 4.91v6.182a1.776 1.82 0 0 0 .414 1.166L8 6.8zM1.414 12.257a1.776 1.82 0 0 0 .12.134 1.776 1.82 0 0 1-.12-.134zm.12.134a1.776 1.82 0 0 0 .134.12 1.776 1.82 0 0 1-.133-.12zm.134.12a1.776 1.82 0 0 0 .143.106 1.776 1.82 0 0 1-.143-.106z"/><path style="fill:#ff9e43" d="m8 6.8-6.586 5.457a1.776 1.82 0 0 0 .474.409l5.224 3.09a1.776 1.82 0 0 0 1.776 0l5.224-3.09a1.776 1.82 0 0 0 .473-.41z"/><path style="fill:#f13f3f" transform="matrix(.3849 0 0 .37402 -1.083 -1.235)" d="m23.599 12.424 10.392 6v12l-10.392 6-10.393-6v-12z"/><path style="opacity:.3" d="M12 5.656 8 7.9v4.488l4-2.244z"/><path style="opacity:.1" d="M4 5.656v4.488l4 2.244V7.9z"/></svg>
